outputs/icons/action/bookmark_outline_round.svg

<svg xmlns="http://www.w3.org/2000/svg" width="1200" height="1200" fill="none"><g clip-path="url(#a)"><path fill="#000" d="M850 150H350c-55 0-100 45-100 100v800l350-150 350 150V250c0-55-45-100-100-100m0 750L600 791 350 900V300c0-27.5 22.5-50 50-50h400c27.5 0 50 22.5 50 50z"/></g><defs><clipPath id="a"><path fill="#fff" d="M0 0h1200v1200H0z"/></clipPath></defs></svg>

<svg width="1200" height="1200" viewBox="0 0 1200 1200" fill="none" xmlns="http://www.w3.org/2000/svg"><g clip-path="url(#clip0_223_1879)"><path d="M850 150H350C295 150 250 195 250 250V1050L600 900L950 1050V250C950 195 905 150 850 150ZM850 900L600 791L350 900V300C350 272.5 372.5 250 400 250H800C827.5 250 850 272.5 850 300V900Z" fill="black"/></g><defs><clipPath id="clip0_223_1879"><path width="24" fill="white" d="M0 0H1200V1200H0V0z"/></clipPath></defs></svg>
